X:14
T:Reel With The Burl, The
T:Ladies Bonnet
T:Reel With A Birl, The
T:Reel With The Beryle, The
T:Reel With The Birl In It, The
T:Reel With The Birl, The
T:Reel With The Burl
T:Tom Clair's Maggie
M:4/4
L:1/8
R:reel
K:Edor
|:E2 BE dEBE|(3EEE BE AGFD|(3EEE BE dEB2|1 dcdB AGFD:|2 dcdB A4||
B3 d e3 g|f~d3 d^def|g4 g3 g|fa (3aaa afe2|
b3 b2 afe|a3 a2 fed|B3 B2 AFA|dcdB AGFD|
W:Variation from slainte
E2 BE dEBE|E2 BE AGFD|E2 BE dE B2|1 d2 dB AGFD:|2 d2 dB A4||
B3 d e3 g|fd d2 d2 ef|g4 g3 e|fa a2 afed|
f3 b bafe|fa a2 afed|B3 B BAFA|d2 dB AGFD||
W:Variation from Dow
K:Edor
~E2BE dEBE|~E2BE AGFD|~E2BE dEBc|1 ~d3B AGFD:|2 ~d3B A2FA||
B3d e3g|fddc d2ef|g2gf gfeg|fa~a2 afed|
fb~b2 bafe|fa~a2 afed|B2BA BAFA|~d3B AGFD||
W:Variation from gian marco
K:EDor
E2BE DEBE|E2BE AFDF|E2BE dEBE|eBdB AFDF|
E2BE DEBE|E2BE AFDF|GBAF G3B|1dedB AFDF:|2d3B A4||
BA(3Bcd e4|fdd2 ed(3Bcd |g2gf g2eg|faab afef|
g2bg faaf|edfe edBA|GBAF GABc|1dedB A3B:|2d3B AFDF||

